X:1
T:Behind the Bush in the Garden [6]
M:C
L:1/8
R:Reel
B:Stephen Grier music manuscript  collection (Book 2, c. 1883, No. 77, pp. 16-17)
B:  http://grier.itma.ie/book-two#?c=0&m=0&s=0&cv=15&z=244.2165%2C817.4307%2C2558.7355%2C1028.881
N:Stephen Grier (c. 1824-1894) was a piper and fiddler from
N:Newpark, Bohey, Gortletteragh, south Co. Leitrim.
Z:AK/Fiddler’s Companion
K:D
fe|dB Bd/B/ AA Ac/A/|Bd/B/ BA/B/ g2 fe|dB Bd/B/ AA Ac/A/|Bc/d/ ed/c/ d2:|
A2|defg aa ag/f/|defg aA Ac/A/|defg aa ag/f/|gB BA/B/ g2 fe|
defg aa ag/f/|defg a2 fa|gb/g/ gb/g/ fa/f/ fa/f/|gB BA/B/ g2||

